X:1
T:Awake with Joy, Salute the Morn
T:Awake with Joy, Salute the Morn
T:Richard Jones, circa 1860
T:English Traditional Carol
T:Public Domain Courtesy of the Cyber Hymnal™
T:Public Domain Courtesy of the Cyber Hymnal™
C:Richard Jones, circa 1860
Z:Public Domain
Z:Courtesy of the Cyber Hymnal™
%%score ( 1 2 ) ( 3 4 )
L:1/8
Q:1/2=95
M:2/2
K:Bb
V:1 treble 
V:2 treble 
V:3 bass 
V:4 bass 
V:1
 [DF]4 | [FB]4 [Fc]4 | [Fd]6 F2 | [EG]4 A4 | [DB]6 d2 | c2 B2 A2 G2 | F2 E2 D2 [DF]2 | %7
w: 1.~A-|wake with|joy, sa-|lute the|morn! The|Sav- ior of man-|kind is born, The|
w: 2.~Lo,|see the|shep- herds|on the|plains, They|shout, and sing me-|lo- dious strains, They|
w: 3.~See|Heav’n’s great|Heir— a|vir- gin’s|Son! Be-|hold a man- ger|for His throne! Be-|
 [FB]4 [Fc]4 | [Fd]4 (fedc) | [FB]4 (A3 B) | [FB]4 [DB]4 | ([DB]2 [FA]2) ([FA]2 [EG]2) | %12
w: Sav- ior|of man- * * *|kind is *|born. A-|wake * and *|
w: shout, and|sing me- * * *|lo- dious *|strains! They|left * their *|
w: hold a|man- ger * * *|for His *|throne! With|rap- * ture *|
 ([EG]2 [DF]2) ([DF]2 [CE]2) | ([CE]2 [B,D]2) [CE]4 | [B,D]4 [DF]4 | (B2 d2) (f2 e2) | %16
w: tune * your *|voice * to|sing Ho-|san- * na *|
w: flocks * and *|herds * be-|hind, The|Lord * and *|
w: view * the *|Lamb * of|God, Born|to * re- *|
 (d2 B2) (G2 c2) | [DB]4 ([CA]3 [DB]) | [DB]4 |:"^Refrain" [DB]2 z2 | [DB]2 z4 [DB]2 | %21
w: to * the *|new- born *|King!|||
w: Sav- * ior *|for to *|find.|Hark!|Hark! the|
w: deem * us *|with His *|blood.|||
 [CA]2 [DB]2 [Ec]2 [Fd]2 | [DB]4 [Fd]2 z2 | [Fd]2 z4 d2 | c2 d2 e2 f2 | d4 [Fd]4 | %26
w: |||||
w: heav’n- ly an- gels|sing; Hark!|Hark! the|heav’n- ly an- gels|sing, Ho-|
w: |||||
 [Ge][Ge] z2 [Fc]4 | [Fd][Fd] z2 [FB]4 | [Fc][Fc] !fermata!z2 [FA]4 x8 | (B2 c2) (d2 f2) | %30
w: ||||
w: san- na, ho-|san- na, ho-|san- na! Ho-|san- * na *|
w: ||||
 ([Df]2 [Ee]2) ([Fd]2 [Ec]2) | [DB]4 ([CA]3 [DB]) :| [DB]4 :| %33
w: |||
w: to * the *|new- born *|King!|
w: |||
V:2
 x4 | x8 | x6 F2 | x4 (C2 E2) | x8 | x8 | x8 | x8 | x4 G4 | x4 F4 | x8 | x8 | x8 | x8 | x8 | %15
 F4 F4 | F4 E4 | x8 | x4 |: x4 | x8 | x8 | x8 | x8 | x8 | x8 | x8 | x8 | x16 | F4 F4 | x8 | x8 :| %32
 x4 :| %33
V:3
 [B,,B,]4 | [D,B,]4 [F,A,]4 | B,6 [D,B,]2 | [E,B,]4 F,4 | [B,,F,]6 B,2 | A,2 G,2 F,2 E,2 | %6
 D,2 C,2 B,,2 [B,,B,]2 | [D,B,]4 [F,B,]4 | B,4 (B,2 E2) | [F,D]4 ([F,,F,-C]3 [B,,F,D]) | %10
 [B,,D]4 z4 | [B,,,B,,]8- | [B,,,B,,]8 | F,,8 | B,,4 [B,,B,]4 | B,4 [F,A,]4 | (B,2 D2) (B,2 G,2) | %17
 F,4 F,4 | [B,,F,]4 |: [B,,F,]2 z2 | [B,,F,]2 z6 | z8 | z4 [B,,B,]2 z2 | [B,,B,]2 z4 B,2 | %24
 A,2 B,2 C2 D2 | B,4 [B,,B,]4 | [E,B,][E,B,] z2 [F,A,]4 | [B,,B,][B,,B,] z2 [B,,D]4 | %28
 [F,A,][F,A,] !fermata!z2 [F,C]4 ([B,D]2 [A,C]2) (B,2 D2) | ([B,,B,]2 [C,A,]2) ([D,B,]2 [E,G,]2) | %30
 F,4 F,4 | [B,,F,]4 x4 :| x4 :| %33
V:4
 x4 | x8 | B,6 x2 | x4 F,4 | x8 | x8 | x8 | x8 | B,4 E,4 | x8 | x8 | x8 | x8 | x8 | x8 | %15
 (D,2 B,,2) x4 | B,4 E,4 | F,4 (F,,3 B,,) | x4 |: x4 | x8 | x8 | x8 | x8 | x8 | x8 | x8 | x8 | %28
 x12 B,4 | x8 | F,4 (F,,3 B,,) | x8 :| x4 :| %33

